vendor/shopware/storefront/Resources/app/storefront/dist/assets/icon/default/log-in.svg

<svg xmlns="http://www.w3.org/2000/svg" width="24" height="24" viewBox="0 0 24 24">
  <path fill="#758CA3" fill-rule="evenodd" d="M16.5857864,13 L1,13 C0.44771525,13 0,12.5522847 0,12 C0,11.4477153 0.44771525,11 1,11 L16.5857864,11 L14.2928932,8.70710678 C13.9023689,8.31658249 13.9023689,7.68341751 14.2928932,7.29289322 C14.6834175,6.90236893 15.3165825,6.90236893 15.7071068,7.29289322 L19.7071068,11.2928932 C20.0976311,11.6834175 20.0976311,12.3165825 19.7071068,12.7071068 L15.7071068,16.7071068 C15.3165825,17.0976311 14.6834175,17.0976311 14.2928932,16.7071068 C13.9023689,16.3165825 13.9023689,15.6834175 14.2928932,15.2928932 L16.5857864,13 Z M10,7 L10,4.69425418 C10,3.22773672 11.0602391,1.97616639 12.506803,1.73507241 L20.506803,0.401739072 C22.141114,0.129353911 23.6867966,1.23341292 23.9591818,2.86772388 C23.9863475,3.03071816 24,3.19567826 24,3.36092084 L24,20.6390792 C24,22.2959334 22.6568542,23.6390792 21,23.6390792 C20.8347574,23.6390792 20.6697973,23.6254266 20.506803,23.5982609 L12.506803,22.2649276 C11.0602391,22.0238336 10,20.7722633 10,19.3057458 L10,17 C10,16.4477153 10.4477153,16 11,16 C11.5522847,16 12,16.4477153 12,17 L12,19.3057458 C12,19.794585 12.353413,20.2117751 12.835601,20.2921397 L20.835601,21.6254731 C20.8899324,21.6345283 20.9449191,21.6390792 21,21.6390792 C21.5522847,21.6390792 22,21.1913639 22,20.6390792 L22,3.36092084 C22,3.30583998 21.9954492,3.25085328 21.9863939,3.19652186 C21.8955989,2.65175153 21.3803713,2.28373187 20.835601,2.37452692 L12.835601,3.70786025 C12.353413,3.78822491 12,4.20541502 12,4.69425418 L12,7 C12,7.55228475 11.5522847,8 11,8 C10.4477153,8 10,7.55228475 10,7 Z"/>
</svg>

<svg xmlns="http://www.w3.org/2000/svg" width="24" height="24" viewBox="0 0 24 24"><path fill="#758CA3" fill-rule="evenodd" d="M16.5858 13H1c-.5523 0-1-.4477-1-1s.4477-1 1-1h15.5858l-2.293-2.2929c-.3904-.3905-.3904-1.0237 0-1.4142.3906-.3905 1.0238-.3905 1.4143 0l4 4c.3905.3905.3905 1.0237 0 1.4142l-4 4c-.3905.3905-1.0237.3905-1.4142 0-.3905-.3905-.3905-1.0237 0-1.4142L16.5858 13zM10 7V4.6943c0-1.4666 1.0602-2.7181 2.5068-2.9592l8-1.3334c1.6343-.2723 3.18.8317 3.4524 2.466A3 3 0 0 1 24 3.361v17.2782c0 1.6568-1.3431 3-3 3a3 3 0 0 1-.4932-.0408l-8-1.3334C11.0602 22.024 10 20.7723 10 19.3057V17c0-.5523.4477-1 1-1s1 .4477 1 1v2.3057a1 1 0 0 0 .8356.9864l8 1.3334A1 1 0 0 0 21 21.639c.5523 0 1-.4477 1-1V3.3609a1 1 0 0 0-.0136-.1644c-.0908-.5447-.606-.9128-1.1508-.822l-8 1.3334A1 1 0 0 0 12 4.6943V7c0 .5523-.4477 1-1 1s-1-.4477-1-1z"/></svg>
